X: 20
M:6/8
L:1/8
K:G
dcB edc|dcB ABc|dcB efg|"tr"B3 d3|
dcB gfe|dcB A2 A|GAB D2 D|E3 G3||

